src/sources/forus-platform/resources/_platform-common/assets/img/features/icons/email-connection/icon-4.svg

<svg width="59" height="59" viewBox="0 0 59 59" fill="none" xmlns="http://www.w3.org/2000/svg">
    <rect x="0.5" y="0.875" width="58" height="58" rx="8" fill="#F7F9FC"/>
    <path d="M23.3491 30.5122C23.3288 30.5122 23.3086 30.5115 23.2881 30.5103L14.478 29.9602C14.1428 29.9395 13.842 29.7478 13.6814 29.4531C13.521 29.1585 13.5229 28.8018 13.687 28.5088C13.7331 28.4263 14.8435 26.4685 16.958 24.761C19.8154 22.4539 23.1372 21.7056 26.564 22.5972C26.8484 22.6712 27.0842 22.8694 27.2063 23.1367C27.3284 23.4041 27.3235 23.7122 27.1929 23.9754L24.2239 29.9693C24.0583 30.3032 23.7183 30.5122 23.3491 30.5122Z" fill="#305DFC"/>
    <path d="M30.4518 45.875C30.2912 45.875 30.1306 45.8355 29.9848 45.7559C29.6901 45.5952 29.4985 45.2947 29.4775 44.9595L28.9277 36.1494C28.9033 35.7571 29.1164 35.3882 29.4687 35.2136L35.4626 32.2444C35.726 32.114 36.0339 32.1091 36.3012 32.2312C36.5688 32.353 36.7668 32.5891 36.8408 32.8735C37.7326 36.3003 36.9843 39.6221 34.6769 42.4795C32.9697 44.594 31.0117 45.7041 30.9291 45.7505C30.7809 45.8335 30.6164 45.875 30.4518 45.875Z" fill="#305DFC"/>
    <path d="M43.9967 21.7537L37.6842 15.4412C37.4312 15.1882 37.0601 15.094 36.7171 15.1953C32.4913 16.4453 29.0223 18.4058 26.4058 21.022C25.8602 21.5679 25.336 22.1594 24.8482 22.78C23.4298 24.5835 22.2449 26.7158 21.327 29.1179C20.7423 30.6489 20.2662 32.2891 19.9119 33.9927C19.2933 36.9685 19.2601 39.1013 19.2589 39.1907C19.2557 39.4536 19.3587 39.707 19.5447 39.8931C19.7279 40.0762 19.9764 40.179 20.2352 40.179H20.2471C20.3367 40.178 22.4696 40.1448 25.4451 39.5261C27.1488 39.1719 28.7889 38.6958 30.3201 38.1108C32.722 37.1929 34.8543 36.0083 36.6573 34.5901C37.2784 34.1021 37.8699 33.5779 38.4158 33.032C41.0323 30.4155 42.9927 26.9465 44.2425 22.7207C44.3441 22.3777 44.2496 22.0066 43.9967 21.7537Z" fill="#E6ECFF"/>
    <path d="M26.1114 38.0552L21.3819 33.3257C21.0328 32.9766 20.4779 32.9431 20.0892 33.2478C19.7872 33.4846 19.4998 33.739 19.2352 34.0037C15.9444 37.2944 15.8426 42.3933 15.8399 42.6087C15.8365 42.8718 15.9395 43.1253 16.1258 43.3113C16.3089 43.4946 16.5572 43.5974 16.816 43.5974C16.8202 43.5974 16.8243 43.5974 16.8285 43.5972C17.0438 43.5945 22.1429 43.4927 25.4334 40.2019C25.6981 39.9373 25.9525 39.6499 26.1893 39.3479C26.494 38.9592 26.4605 38.4043 26.1114 38.0552Z" fill="#C4D1FF"/>
    <path d="M21.4016 28.9226L18.5 31.8245C18.3169 32.0073 18.2139 32.2556 18.2139 32.5147C18.2139 32.7734 18.3169 33.0217 18.5 33.2048L26.2322 40.937C26.415 41.1201 26.6633 41.2229 26.9224 41.2229C27.1814 41.2229 27.4294 41.1201 27.6126 40.937L30.5142 38.0354L21.4016 28.9226Z" fill="#092DAA"/>
    <path d="M34.0686 28.3469C33.2732 28.3469 32.5251 28.0371 31.9626 27.4746C30.8015 26.3135 30.8015 24.4243 31.9626 23.2629C32.5251 22.7004 33.2732 22.3906 34.0686 22.3906C34.864 22.3906 35.6121 22.7004 36.1746 23.2629C36.7371 23.8254 37.0469 24.5732 37.0469 25.3689C37.0469 26.1643 36.7371 26.9121 36.1746 27.4746C35.6121 28.0371 34.864 28.3469 34.0686 28.3469Z" fill="white"/>
    <path d="M34.0685 29.3018C33.018 29.3018 32.0305 28.8926 31.2878 28.1499C29.7543 26.6165 29.7543 24.1213 31.2878 22.5879C32.0305 21.8452 33.0183 21.436 34.0685 21.436C35.1191 21.436 36.1066 21.8452 36.8495 22.5879C37.5925 23.3308 38.0014 24.3184 38.0014 25.3689C38.0014 26.4194 37.5925 27.407 36.8495 28.1499C36.1066 28.8926 35.1191 29.3018 34.0685 29.3018ZM34.0685 23.3884C33.5397 23.3884 33.0422 23.5945 32.6682 23.9685C31.8962 24.7407 31.8962 25.9971 32.6682 26.7693C33.0422 27.1433 33.5397 27.3494 34.0685 27.3494C34.5976 27.3494 35.0949 27.1433 35.4689 26.7693C35.843 26.3953 36.049 25.898 36.049 25.3689C36.049 24.8398 35.843 24.3425 35.4689 23.9685C35.0949 23.5945 34.5976 23.3884 34.0685 23.3884Z" fill="#092DAA"/>
    <path d="M45.2766 14.1611C45.0903 13.9749 44.8355 13.8701 44.5737 13.8752C44.429 13.8769 40.978 13.9351 36.7168 15.1953L44.2422 22.7207C45.5024 18.4595 45.5606 15.0085 45.5623 14.8638C45.5657 14.6006 45.4627 14.3472 45.2766 14.1611Z" fill="#305DFC"/>
    <path d="M45.2764 14.1609L40.4795 18.958L44.2422 22.7207C45.5024 18.4595 45.5606 15.0085 45.5623 14.8638C45.5657 14.6006 45.4627 14.3472 45.2764 14.1609Z" fill="#305DFC"/>
</svg>

<svg width="59" height="59" fill="none" xmlns="http://www.w3.org/2000/svg"><rect x=".5" y=".875" width="58" height="58" rx="8" fill="#F7F9FC"/><path d="M23.35 30.512c-.021 0-.041 0-.062-.002l-8.81-.55a.976.976 0 0 1-.791-1.451c.046-.083 1.157-2.04 3.271-3.748 2.857-2.307 6.18-3.055 9.606-2.164a.977.977 0 0 1 .629 1.378l-2.97 5.994a.977.977 0 0 1-.874.543ZM30.452 45.875a.973.973 0 0 1-.975-.916l-.55-8.81a.977.977 0 0 1 .542-.935l5.994-2.97a.976.976 0 0 1 1.378.63c.892 3.426.143 6.748-2.164 9.605-1.707 2.115-3.665 3.225-3.748 3.272a.976.976 0 0 1-.477.124Z" fill="#305DFC"/><path d="m43.997 21.754-6.313-6.313a.977.977 0 0 0-.967-.246c-4.226 1.25-7.695 3.21-10.311 5.827a19.832 19.832 0 0 0-1.558 1.758c-1.418 1.803-2.603 3.936-3.521 6.338a31.926 31.926 0 0 0-1.415 4.875c-.619 2.975-.652 5.108-.653 5.198a.977.977 0 0 0 .976.988h.012c.09-.001 2.223-.034 5.198-.653a31.887 31.887 0 0 0 4.875-1.415c2.402-.918 4.534-2.103 6.337-3.52a19.758 19.758 0 0 0 1.759-1.559c2.616-2.616 4.577-6.085 5.827-10.311a.976.976 0 0 0-.246-.967Z" fill="#E6ECFF"/><path d="m26.111 38.055-4.73-4.73a.976.976 0 0 0-1.292-.077 9.5 9.5 0 0 0-.854.756c-3.29 3.29-3.392 8.39-3.395 8.605a.975.975 0 0 0 .976.988h.012c.216-.003 5.315-.104 8.605-3.395a9.5 9.5 0 0 0 .756-.854.976.976 0 0 0-.078-1.293Z" fill="#C4D1FF"/><path d="M21.402 28.923 18.5 31.825a.975.975 0 0 0 0 1.38l7.732 7.732a.975.975 0 0 0 1.38 0l2.902-2.902-9.112-9.112Z" fill="#092DAA"/><path d="M34.069 28.347a2.96 2.96 0 0 1-2.106-.872 2.982 2.982 0 0 1 0-4.212 2.96 2.96 0 0 1 2.106-.872c.795 0 1.543.31 2.106.872.562.562.872 1.31.872 2.106 0 .795-.31 1.543-.872 2.106a2.96 2.96 0 0 1-2.106.872Z" fill="#fff"/><path d="M34.069 29.302c-1.051 0-2.038-.41-2.781-1.152a3.937 3.937 0 0 1 0-5.562 3.907 3.907 0 0 1 2.78-1.152c1.051 0 2.039.41 2.782 1.152A3.907 3.907 0 0 1 38 25.368c0 1.051-.408 2.039-1.151 2.782a3.908 3.908 0 0 1-2.782 1.152Zm0-5.914c-.53 0-1.027.206-1.4.58a1.983 1.983 0 0 0 0 2.801c.373.374.87.58 1.4.58.529 0 1.026-.206 1.4-.58.374-.374.58-.871.58-1.4 0-.53-.206-1.026-.58-1.4a1.968 1.968 0 0 0-1.4-.58Z" fill="#092DAA"/><path d="M45.277 14.161a.972.972 0 0 0-.703-.286c-.145.002-3.596.06-7.857 1.32l7.525 7.526c1.26-4.262 1.319-7.713 1.32-7.857a.976.976 0 0 0-.285-.703Z" fill="#305DFC"/><path d="m45.276 14.16-4.797 4.798 3.763 3.763c1.26-4.262 1.319-7.713 1.32-7.857a.976.976 0 0 0-.286-.703Z" fill="#305DFC"/></svg>
